X:229
T:Boys of the Town, The
R:jig
H:Another tune with the same name: #230
Z:id:hn-jig-229
M:6/8
K:G
~G3 GBd|edB dBA|~G3 GBd|edB AFD|
~G3 GBd|edB ~g3|edB AGA|1 BGF G2D:|2 BGF G2B||
|:def ~g3|afd edB|def ~g3|afd e2B|
[1 def gfg|afd efg|edB AGA|BGF G2B:|
[2 def gbb|faa efg|edB AGA|BGF G2D||

